X:1
T:She that my plaints - Kirbye
T:#
%%score { 1 | 2 } 3 4 5
L:1/8
Q:1/4=120
M:4/4
K:Bb
V:1 treble nm="Soprano I" snm="S"
V:2 treble 
V:3 treble nm="Alto" snm="A"
V:4 treble-8 nm="Tenor" snm="T"
V:5 bass nm="Bass" snm="B"
V:1
"^She that my plaints" z8 | z8 | z8 |"^George Kirbye\n(1565-1634)" z8 | z4 d4 | %5
w: ||||She|
[M:4/4] G4 A2 B2- x4 | B2 B2 c2 d2 | (edcd e2) f2 | d4 d2 d2 | e4 d2 G2- | x8 | G2 z2 z4 | %12
w: that my plaints|* with ri- gour|long * * * * re-|ject- ed, she|that my plaints|||
 z2 d2 c2 B2 | (AGFG A2) d2 | d4 d2 z2 | z8 | z8 | z8 | z4 d4- | d4 c2 B2 | A8 | z8 | z4 f4- | %23
w: with ri- gour|long * * * * re-|ject- ed,||||Bind\-|* ing my|heart,||bind\-|
 f4 e2 (d2- | d2 cd c2 B2) | c4 z2 B2 | B3 F G2 B2 | A4 B2 B2 | B3 c d2 G2 | F4 G4 | z2 e2 e3 f | %31
w: * ing my||heart with|those her gold- en|tres- ses, with|those her gold- en|tres- ses,|with those her|
 g2 c2 =B4 | c2 c2 _e3 d | (cdef g4) | z2 c2 e3 d | (cdef g4) | z2 g2 e3 f | (gfed c4) | z4 z2 e2 | %39
w: gold- en tres-|ses, In re- com-|pense * * * *|in re- com-|pense, * * * *|in re- com-|pense, * * * *|in|
 d3 e (fedc) | (dcBA G4) | z4 e4 | e4 d4 | c8- | c4 B4- | B4 (A2 G2 | B4) A4 | z8 | z8 | z8 | %50
w: re- com- pense * * *||of|all my|long|* dis\-|* tres\- *|* ses||||
 z4 g4 | g4 f4 | e4 d4 | e8 | d8 | z8 | z8 | z8 | z8 | z8 | z4 d4 | c4 A4 | z2 =B4 d2 | %63
w: of|all my|long dis-|tres-|ses,||||||Said|with a|sigh, 'Thy|
 (dcBA GABG | A3) A G4 | ^F2 (G4 F2) | G4 z2 _B2 | (BAGA Bcde | f2) F2 GABc | d2 e2 d4 | %70
w: love * * * * * * *|* hath me|in- fect\- *|ed, thy|love * * * * * * *|* hath me * * *|* in- fect-|
 B2 e2 e3 e | d4 (c4 | =B2) (c4 B2) | c4 g4 | g6 g2 | f4 d4 | (c2 B4 _A2) | G4 z2 g2 | %78
w: ed, thy love hath|me in\-|* fect\- *|ed, thy|love hath|me in-|fect\- * *|ed, thy|
[Q:1/4=119] e2[Q:1/4=117] d2[Q:1/4=115] c2[Q:1/4=113] d2 |[Q:1/4=111] (=B4[Q:1/4=107] c4- | %80
w: love hath me in-|fect\- *|
[Q:1/4=104] c4[Q:1/4=101] =B4) |[Q:1/4=100] !fermata!c8 |] %82
w: |ed'.|
V:2
 z8 | z8 | z8 | z8 | z4 G4 |[M:4/4] B4 c2 d2- x4 | d2 G2 A2 B2 | (cded c2) c2 | =B4 B2 _B2 | %9
w: ||||She|that my plaints|* with ri- gour|long * * * * re-|ject- ed, she|
 c4 B2 B2- | x8 | B2 e2 d2 (cB) | (AGFG A2) d2 | d4 d2 B2 | A4 A2 z2 | z8 | z8 | z4 B4- | %18
w: that my plaints||* with ri- gour *|long * * * * re-|ject- ed, re-|ject- ed,|||Bind\-|
 B4 A2 G2 | ^F4 G4- | G2 G2 ^F4 | G4 g4- | g4 f2 e2 | d8 | z8 | z4 z2 d2 | d3 f e2 d2 | c4 d2 d2 | %28
w: * ing my|heart, bind\-|* ing my|heart, bind\-|* ing my|heart||with|those her gold- en|tres- ses, with|
 G3 A =B2 c2 | =B4 c2 e2 | e3 f g2 c2 | (=B2 c2 d4) | =e4 z4 | z2 c2 _e3 d | (cdef g4) | %35
w: those her gold- en|tres- ses, with|those her gold- en|tres\- * *|ses,|In re- com-|pense, * * * *|
 z2 c2 e3 d | (cdef g4) | z2 g2 e3 f | (gfed c4) | z2 B2 A3 A | D2 d2 B3 c | (dcBA G4) | z8 | z8 | %44
w: in re- com-|pense, * * * *|in re- com-|pense, * * * *|in re- com-|pense, in re- com-|pense * * * *|||
 z8 | z4 g4 | g4 f4 | e4 d4- | d2 e2 f4 | (B2 c2) d4- | d4 c4 | d6 A2 | c4 d4 | c8 | =B4 d4 | %55
w: |of|all my|long dis\-||tres\- * ses,|* of|all my|long dis-|tres-|ses, Said|
 c4 A4 | z2 =B4 d2 | d6 d2 | c4 B4 | (A2 G2 A4) | G8 | z8 | z8 | z8 | z8 | z8 | z4 z2 d2 | %67
w: with a|sigh, 'Thy|love hath|me in-|fect\- * *|ed,||||||thy|
 (dcBA GABG | A3) A B2 G2 | (^F2 G4 F2) | G8 | z8 | z8 | z4 z2 G2 | (GFEF GABc | d4) z2 g2 | %76
w: love * * * * * * *|* hath me in-|fect\- * *|ed.|||thy|love * * * * * * *|* hath|
 (e2 d2 c2) d2 | (=B2 c4 B2) | c8 | z4 G4 | G8 | !fermata!G8 |] %82
w: me * * in-|fect\- * *|ed,|in-|fect-|ed'.|
V:3
 G8 | D4 E2 F2- | F2 G2 E2 C2 | (FEDE F2) E2 | D4 D2 G2- |[M:4/4] G2 E2 C2 B,2- x4 | B,2 E2 E2 F2 | %7
w: She|that my plaints|* with ri- gour|long * * * * re-|ject- ed, she|* that my plaints|* with ri- gour|
 _A6 A2 | G4 G2 G2- | G2 G2 F2 E2- | x8 | E2 z2 z4 | z2 B2 A2 G2 | (FEDE F2) G2 | ^F4 F2 z2 | %15
w: long re-|ject- ed, she|* that my plaints|||with ri- gour|long * * * * re-|ject- ed,|
 z4 E4- | E4 D2 C2 | D8- | D8 | D8 | z4 D4- | D4 (C2 B,2 | C2) G,2 B,4- | B,4 B4- | B4 A2 G2 | %25
w: Bind\-|* ing my|heart,|||bind\-|* ing *|* my heart,|* bind\-|* ing my|
 A4 z2 F2 | F3 D E2 F2 | F4 F2 D2 | E3 C G2 E2 | D4 C2 G2 | G3 F E2 C2 | G8 | G8- | G4 z2 C2 | %34
w: heart with|those her gold- en|tres- ses, with|those her gold- en|tres- ses, with|those her gold- en|tres-|ses,|* In|
 E3 D (CDEF | G4) z2 C2 | E3 D (CDEC) | G4 z2 G2 | (E3 F G2) C2 | F4 F4 | G6 D2 | D4 B4 | B4 A4- | %43
w: re- com- pense, * * *|* in|re- com- pense, * * *|* in|re\- * * com-|pense, in|re- com-|pense of|all my|
 A4 G4- | G4 ^F4 | G4 G4 | z8 | B8 | B4 A4 | G4 F4 | (G6 A2 | B4) A4 | z2 G2 G2 F2 | E2 D2 C4 | %54
w: * long|* dis-|tres- ses,||of|all my|long dis-|tres\- *|* ses,|of all my|long dis- tres-|
 D4 G4 | G4 ^F4 | z2 G4 =F2- | F2 B4 B2 | A4 G4 | (^F2 G4 F2) | G4 D4 | E4 D4 | z2 D4 _B,2 | %63
w: ses, Said|with a|sigh, 'Thy|* love hath|me in-|fect\- * *|ed', said|with a|sigh, 'Thy|
 (B,A,G,A, B,CDE | F2) F,2 (G,A,B,C) | D2 E2 D4 | D8 | z8 | z8 | z4 A4 | G6 G2 | F4 (E4 | %72
w: love * * * * * * *|* hath me * * *|* in- fect-|ed,|||thy|love hath|me in\-|
 D2) (C2 D4) | C8 | z2 c2 B4- | B4 B4 | G2 F2 (G2 F2- | F2 E2) D4 | z4 z2 F2 | D4 C4 | D2 G,2 G4 | %81
w: * fect\- *|ed,|Thy love|* hath|me in- fect\- *|* * ed,|thy|love hath|me in- fect-|
 !fermata!=E8 |] %82
w: ed'.|
V:4
 z4 G4 | B4 c2 d2- | d2 B2 c2 e2 | (defe d2) c2 | =B4 B2 z2 |[M:4/4][K:treble-8] z8 x4 | %6
w: She|that my plaints|* with ri- gour|long * * * * re-|ject- ed,||
 z2 e2 c2 B2 | _A6 F2 | G4 G2 d2 | c4 F2 B2- | x8 | B2 z2 z2 g2 | f6 B2 | d6 G2 | d4 d2 z2 | G8- | %16
w: with ri- gour|long re-|ject- ed, she|that my plaints||* with|ri- gour|long re-|ject- ed,|Bind\-|
 G4 F2 E2 | D4 z4 | z4 B4- | B4 A2 (G2 | A8) | G8 | z4 d4- | d4 c2 B2 | f8- | f4 z2 B2 | %26
w: * ing my|heart,|bind\-|* ing my||heart,|bind\-|* ing my|heart|* with|
 B3 B B2 B2 | c4 B4 | z8 | z8 | z2 B2 B3 c | d2 e2 d4 | c4 z2 c2 | e3 d (cdef) | g4 z4 | c4 c4 | %36
w: those her gold- en|tres- ses,|||with those her|gold- en tres-|ses, In|re- com- pense * * *||in re-|
 C4 C4- | C4 C4 | G3 F (EFGA | B4) z2 d2 | B3 c (dcBA | G4) g4 | g4 f4- | f4 e4- | e4 d4 | e8 | %46
w: com- pense,|* in|re- com- pense, * * *|* in|re- com- pense * * *|* of|all my|* long|* dis-|tres-|
 d8 | z4 d4- | d4 d4- | d2 c4 B2- | B2 A2 G4 | d4 d4 | c4 G4 | G8 | G4 _B4 | c4 d4 | z2 G4 _B2 | %57
w: ses,|of|* all|* my long|* dis- tres-|ses, my|long dis-|tres-|ses, Said|with a|sigh, 'Thy|
 (BAGA Bcde | f2) F2 (GABc | d2) e2 d4 | G4 B4 | A2 (G2 ^F4) | z2 G4 G2 | d6 B2 | c6- G2 | %65
w: love * * * * * * *|* hath me * * *|* in- fect-|ed', said|with a *|sigh, 'Thy|love hath|me in-|
 (A2 c2 A4) | =B4 z2 g2 | g6 g2 | f4 e4 | (d2 c2 d4) | G2 c2 B3 c | (defg _a2) g2 | g2 f2 g4 | %73
w: fect\- * *|ed, thy|love hath|me in-|fect\- * *|ed, thy love hath|me, * * * * hath|me in- fect-|
 =e4 _e4 | e8 | d8 | z8 | z4 z2 G2 | c2 d2 (e2 f2 | g4) e4 | d8 | !fermata!c8 |] %82
w: ed, in-|fect-|ed,||Thy|love hath me *|* in-|fect-|ed'.|
V:5
 z8 | z8 | z2 G,2 _A,2 A,2 | B,6 C2 | G,4 G,2 z2 |[M:4/4] z12 | z8 | z8 | z4 G,4 | C,4 D,2 E,2- | %10
w: ||With ri- gour|long re-|ject- ed,||||She|that my plaints|
 E,2 C,2 G,2 E,2 | (F,E,D,E, F,2) G,2 | D,4 D,2 z2 | z8 | B,8- | B,4 A,2 G,2 | ^F,4 G,4- | %17
w: * with ri- gour|long * * * * re-|ject- ed,||Bind\-|* ing my|heart, bind\-|
 G,4 F,2 E,2 | D,8- | D,8- | E,8- | E,4 D,2 C,2 | B,,8 | z8 | z4 z2 B,,2 | B,,3 B,, E,2 B,,2 | %26
w: * ing my|heart,||bind\-|* ing my|heart||with|those her gold- en|
 F,4 B,,4 | z8 | z4 z2 C,2 | E,3 E, E,2 A,2 | G,8 | C,8- | C,8 | z4 z2 C,2 | E,3 D, (C,D,E,F, | %35
w: tres- ses,||with|those her gold- en|tres-|ses,||In|re- com- pense, * * *|
 G,4) z2 G,2 | E,3 F, (G,F,E,D, | C,4) z2 C,2 | B,,3 C, (D,C,B,,A,,) | (G,,8- | G,,8) | z8 | z8 | %43
w: * in|re- com- pense, * * *|* in|re- com- pense * * *|||||
 z8 | z8 | z8 | G,8 | G,4 F,4 | E,4 D,4 | E,8 | D,8 | z4 =B,,4 | C,8 | G,,8 | z8 | z8 | z8 | z8 | %58
w: |||of|all my|long dis-|tres-|ses,|dis-|tres-|ses,|||||
 z8 | z4 G,,4 | C,4 D,4 | z2 G,,4 G,2 | G,6 G,2 | F,4 E,4 | (D,2 C,2 D,4) | G,,8 | z8 | z8 | %68
w: |said|with a|sigh, 'Thy|love hath|me in-|fect\- * *|ed,|||
 z4 z2 D,2 | (E,D,C,D, E,F,G,A,) | B,2 B,,2 (C,D,E,F, | G,2) _A,2 G,4 | C,4 z2 C,2 | %73
w: thy|love * * * * * * *|hath * me * * *|* in- fect-|ed, thy|
 (E,D,C,D, E,F,G,A, | B,4) B,,4 | (C,2 D,2 E,2 F,2 | G,8) | _A,8 | G,8- | G,8 | !fermata!C,8 | %81
w: love * * * * * * *|* hath|me * * *||in-|fect\-||ed'.|
 x8 |] %82
w: |

